assets/upcloud/original.svg

<svg viewBox="0 0 24 24" xmlns="http://www.w3.org/2000/svg" fill="#7B00FF"><path d="m22.1155 12.9964a1.8845 1.8845 0 1 1 0 3.769h-13.4512v-4.8954h.888v4.0072h12.5849a1.0078 1.0078 0 0 0 .9964-.9964 1.0317 1.0317 0 0 0 -1.0397-.9964h-11.6969v-.888zm-8.6859-5.7617h-4.7653v1.9927h.888v-1.1263h3.899a1.0078 1.0078 0 0 1 .9964.9964 1.0653 1.0653 0 0 1 -1.018 1.0397h-11.5452a1.8845 1.8845 0 1 0 0 3.769h5.8917v-.8881h-5.8917a.9964.9964 0 0 1 0-1.9928h11.5668a1.8999 1.8999 0 0 0 1.8844-1.8845 1.9375 1.9375 0 0 0 -1.9061-1.9061z"/></svg>

<svg xmlns="http://www.w3.org/2000/svg" fill="#7b00ff" viewBox="0 0 24 24"><path d="M22.116 12.996a1.885 1.885 0 1 1 0 3.77H8.664V11.87h.888v4.007h12.585a1.01 1.01 0 0 0 .997-.996 1.03 1.03 0 0 0-1.04-.997H10.397v-.888zM13.43 7.235H8.664v1.992h.888V8.101h3.9a1.01 1.01 0 0 1 .996.996 1.065 1.065 0 0 1-1.018 1.04H1.885a1.885 1.885 0 1 0 0 3.77h5.891v-.889H1.884a.996.996 0 0 1 0-1.993h11.567a1.9 1.9 0 0 0 1.885-1.884 1.94 1.94 0 0 0-1.906-1.906"/></svg>
